src/digg/digg.svg

<svg xmlns="http://www.w3.org/2000/svg" width="128" height="128"><path fill="#fff" d="M36.8 40v11.2h-12.8v27.2h20.8v-38.4h-8zm0 32h-4.8v-14.4h4.8v14.4zm11.2-20.8h8v27.2h-8v-27.2zm0-11.2h8v8h-8v-8zm11.2 11.2v27.2h12.8v3.2h-12.8v6.4h20.8v-36.8h-20.8zm12.8 20.8h-4.8v-14.4h4.8v14.4zm11.2-20.8v27.2h12.8v3.2h-12.8v6.4h20.8v-36.8h-20.8zm12.8 20.8h-4.8v-14.4h4.8v14.4z"/></svg>

<?xml version="1.0" encoding="UTF-8" standalone="no"?>
<!-- Created with Inkscape (http://www.inkscape.org/) -->

<svg
   xmlns:dc="http://purl.org/dc/elements/1.1/"
   xmlns:cc="http://creativecommons.org/ns#"
   xmlns:rdf="http://www.w3.org/1999/02/22-rdf-syntax-ns#"
   xmlns:svg="http://www.w3.org/2000/svg"
   xmlns="http://www.w3.org/2000/svg"
   xmlns:inkscape="http://www.inkscape.org/namespaces/inkscape"
   version="1.1"
   width="128"
   height="128"
   id="svg2">
  <metadata
     id="metadata10">
    <rdf:RDF>
      <cc:Work
         rdf:about="">
        <dc:format>image/svg+xml</dc:format>
        <dc:type
           rdf:resource="http://purl.org/dc/dcmitype/StillImage" />
      </cc:Work>
    </rdf:RDF>
  </metadata>
  <defs
     id="defs8" />
  <path
     d="M 36.8,40 V 51.2 H 24 V 78.4 H 44.8 V 40 h -8 z m 0,32 H 32 V 57.6 h 4.8 V 72 z M 48,51.2 h 8 V 78.4 H 48 V 51.2 z M 48,40 h 8 v 8 H 48 V 40 z M 59.2,51.2 V 78.4 H 72 v 3.2 H 59.2 V 88 H 80 V 51.2 H 59.2 z M 72,72 H 67.2 V 57.6 H 72 V 72 z M 83.2,51.2 V 78.4 H 96 v 3.2 H 83.2 V 88 H 104 V 51.2 H 83.2 z M 96,72 H 91.2 V 57.6 H 96 V 72 z"
     inkscape:connector-curvature="0"
     id="path4"
     style="fill:#ffffff" />
</svg>
